include/LD/assets/icons/action/new_custom13.svg

<?xml version="1.0"?><svg xmlns="http://www.w3.org/2000/svg" width="52" height="52" viewBox="0 0 52 52"><g fill="#fff"><path d="m45.2 4h-38.4c-2.6 0-4.8 2.1-4.8 4.7v4.7c0 0.9 0.7 1.6 1.6 1.6h44.8c0.9 0 1.6-0.7 1.6-1.6v-4.7c0-2.6-2.2-4.7-4.8-4.7z m0 15.7h-38.4c-0.9 0-1.6 0.7-1.6 1.6v22c0 2.6 2.2 4.7 4.8 4.7h32c2.6 0 4.8-2.1 4.8-4.7v-22c0-0.9-0.7-1.6-1.6-1.6z m-10.4 7.1c0 1.3-1 2.4-2.4 2.4h-12.8c-1.3 0-2.4-1-2.4-2.4 0-1.3 1-2.4 2.4-2.4h12.8c1.4 0 2.4 1 2.4 2.4z"></path></g></svg>

<svg xmlns="http://www.w3.org/2000/svg" x="0px" y="0px"
	 width="52px" height="52px" viewBox="0 0 52 52" enable-background="new 0 0 52 52" xml:space="preserve">
<g>
	<path fill="#FFFFFF" d="M45.2,4H6.8C4.2,4,2,6.1,2,8.7v4.7C2,14.3,2.7,15,3.6,15h44.8c0.9,0,1.6-0.7,1.6-1.6V8.7
		C50,6.1,47.8,4,45.2,4z"/>
	<path fill="#FFFFFF" d="M45.2,19.7H6.8c-0.9,0-1.6,0.7-1.6,1.6v22c0,2.6,2.2,4.7,4.8,4.7h32c2.6,0,4.8-2.1,4.8-4.7v-22
		C46.8,20.4,46.1,19.7,45.2,19.7z M34.8,26.8c0,1.3-1,2.4-2.4,2.4H19.6c-1.3,0-2.4-1-2.4-2.4l0,0c0-1.3,1-2.4,2.4-2.4h12.8
		C33.8,24.4,34.8,25.4,34.8,26.8L34.8,26.8z"/>
</g>
</svg>
